!!!COM: Martin, Frank
!!!OTL: Ballad for Flute and Piano (Orchestral Version)
!!!OMV:
!!!example: 554
!!!work: Mai-20
**kern	**kern	**kern
*part2	*part2	*part1
*staff3	*staff2	*staff1
*I"Piano	*	*I"Flute
*I'Pno.	*	*I'Fl.
*clefF4	*clefG2	*clefG2
*k[]	*k[]	*k[]
*C:	*C:	*C:
*M3/4	*M3/4	*M3/4
=95	=	=
*^	*	*
[2.FF#X	[2.FFF#X	(4G#X 4en 4f	8%3r
.	.	4B 4d 4f	.
.	.	.	([8%3b-X
.	.	4G# 4en 4f	.
=96	=96	=96	=96
2FF#]	2.FFF#_	4B 4d 4f	8%3b-]
.	.	4G#X 4en 4f	.
.	.	.	8%3b-X~
4r	.	4B 4d 4f	.
=97	=97	=97	=97
[2.FF#X	4FFF#]	4G#X 4en 4f	8%3dd-X~
.	4r	4B 4d 4f	.
.	.	.	8%3b-X~
.	4r	4G# 4en 4f	.
=98	=98	=98	=98
2.FF#_	[2.FFF#X	4Gn 4dn 4e	[2.an
.	.	4B-X 4c#X 4e	.
.	.	4Gn) 4dn 4e	.
=99	=99	=99	=99
2FF#]	2.FFF#_	(4B-X 4c#X 4e	2.an])
.	.	4Gn 4dn 4e	.
4r	.	4B- 4c# 4e	.
=100	=100	=100	=100
[2.FF#X	4FFF#]	4Gn 4dn 4e	8%3r
.	4r	4B-X 4c#X 4e	.
.	.	.	([8%3f#X
.	4r	4Gn 4dn 4e	.
=101	=101	=101	=101
2.FF#_	[2.FFF#X	4B-X 4c#X 4e	8%3.f#]
.	.	4Gn 4dn 4e	.
.	.	4B- 4c# 4e	.
.	.	.	16%3g)
=102	=102	=102	=102
2FF#]	2.FFF#_	4G#X 4en 4f	(16%3aL
.	.	.	16%3b
.	.	4Bn 4d 4f	.
.	.	.	16%3cc
4r	.	4G# 4en 4f	.
.	.	.	16%3ddJ)
=103	=103	=103	=103
!!linebreak:original
[2.FF#X	4FFF#]	4B-X 4f 4g	(8%3ee-X~
.	4r	4e-X 4f 4a	.
.	.	.	8%3dd-X~
.	4r	4B- 4f 4g	.
=104	=104	=104	=104
2.FF#_	[2.FFF#X	4e-X 4f 4a	8%3cc~
.	.	4B-X 4f 4g	.
.	.	.	8%3b-X~)
.	.	4e-) 4f 4a	.
=105	=105	=105	=105
2FF#]	2.FFF#_	(4Bn 4g 4a-X	(8%3ee~
.	.	4d 4f 4a-	.
.	.	.	8%3dd~
4r	.	4Bn 4g 4a-	.
=106	=106	=106	=106
2FF#X	2FFF#]	4d 4f 4a-X	8%3cc#X~
.	.	4Bn 4g 4a-	.
.	.	.	8%3bn~)
*v	*v	*	*
*8ba	*	*
*^	*	*
4r	4r	4d 4f 4a-	.
*v	*v	*	*
=107	=107	=107
[2.BBBB [2.BBB	4cn 4g#X 4an	(16%3ff~L
.	.	16%3dd~
.	4d#X 4f#X 4a	.
.	.	16%3ff~
.	4cn 4g# 4a	.
.	.	[16%3dd~J
=108	=108	=108
2.BBBB_ 2.BBB_	4d#X 4f#X 4a	2.dd_
.	4c 4g#X 4a	.
.	4d# 4f# 4a	.
=109	=109	=109
2BBBB] 2BBB]	4c 4g#X 4a	2.dd])
.	4d#X 4f#X 4a	.
4r	4c 4g# 4a	.
=110	=110	=110
[2.FF~	4d#X 4f#X 4a	8%3r
.	4c 4g#X 4a	.
.	.	[8%3ddd~
.	4d#) 4f# 4a	.
*X8ba	*	*
==	==	==
*-	*-	*-
!!!CDT: 1890/09/15-1974/11/21
!!!CBL: Geneva, Switzerland
!!!CDL: Naarden, Netherlands
!!!CNT: Swiss
!!!AGN: Orchestral; Concerto
!!!MCN: Ansermet, Ernest
!!!MDT: 1939/11/27
!!!MGN: Orchestre de la Suisse Romande
!!!MLC: Lausanne, Switzerland
!!!MPD: 1939
!!!MPN: Pépin, André
!!!ODT: 1941
!!!PDT: 1944
!!!excerpt-start-measure: 95
!!!excerpt-end-measure: 110
!!!excerpt-start-time: 2:08
!!!excerpt-end-time: 2:23
!!!EEV: 2020/01/17
!!!system-decoration: s1{(s2,s3)}
!!!ONB: Converted from MusicXML on 2020/01/17
